lib/assets/icons/svg/outlined-content-changeview.svg

<svg viewBox="0 0 24 24" xmlns="http://www.w3.org/2000/svg">
  <path  d="M 12.005 20.41 C 11.762 20.41 11.565 20.213 11.565 19.97 L 11.565 4.03 C 11.565 3.691 11.932 3.48 12.225 3.649 C 12.361 3.728 12.445 3.873 12.445 4.03 L 12.445 19.97 C 12.445 20.213 12.248 20.41 12.005 20.41 Z M 4.975 20.39 C 3.722 20.385 2.706 19.373 2.695 18.12 L 2.695 5.89 C 2.693 5.28 2.938 4.696 3.375 4.27 C 3.801 3.849 4.376 3.612 4.975 3.61 L 9.835 3.61 C 10.111 3.61 10.335 3.834 10.335 4.11 C 10.335 4.386 10.111 4.61 9.835 4.61 L 4.985 4.61 C 4.637 4.62 4.309 4.772 4.075 5.03 C 3.83 5.265 3.692 5.59 3.695 5.93 L 3.695 18.11 C 3.7 18.815 4.27 19.385 4.975 19.39 L 9.495 19.39 C 9.771 19.39 9.995 19.614 9.995 19.89 C 9.99 20.164 9.769 20.385 9.495 20.39 L 4.975 20.39 Z M 16.855 19.88 C 16.855 19.604 17.079 19.38 17.355 19.38 C 17.631 19.38 17.855 19.604 17.855 19.88 C 17.861 20.16 17.635 20.39 17.355 20.39 C 17.075 20.39 16.849 20.16 16.855 19.88 Z M 13.855 19.88 C 13.855 19.604 14.079 19.38 14.355 19.38 C 14.631 19.38 14.855 19.604 14.855 19.88 C 14.861 20.16 14.635 20.39 14.355 20.39 C 14.075 20.39 13.849 20.16 13.855 19.88 Z M 19.855 19.75 C 19.774 19.659 19.727 19.542 19.725 19.42 C 19.722 19.271 19.784 19.129 19.895 19.03 C 20.088 18.827 20.412 18.827 20.605 19.03 C 20.689 19.119 20.735 19.237 20.735 19.36 C 20.738 19.504 20.679 19.641 20.575 19.74 C 20.48 19.821 20.36 19.867 20.235 19.87 C 20.101 19.88 19.968 19.837 19.865 19.75 Z M 20.305 16.58 C 20.305 16.304 20.529 16.08 20.805 16.08 C 21.081 16.08 21.305 16.304 21.305 16.58 C 21.305 16.856 21.081 17.08 20.805 17.08 C 20.533 17.075 20.315 16.852 20.315 16.58 Z M 20.305 13.58 C 20.31 13.306 20.531 13.085 20.805 13.08 C 21.081 13.08 21.305 13.304 21.305 13.58 C 21.305 13.856 21.081 14.08 20.805 14.08 C 20.533 14.075 20.315 13.852 20.315 13.58 Z M 20.305 10.58 C 20.31 10.306 20.531 10.085 20.805 10.08 C 21.081 10.08 21.305 10.304 21.305 10.58 C 21.305 10.856 21.081 11.08 20.805 11.08 C 20.533 11.075 20.315 10.852 20.315 10.58 Z M 20.305 7.58 C 20.305 7.304 20.529 7.08 20.805 7.08 C 21.081 7.08 21.305 7.304 21.305 7.58 C 21.305 7.856 21.081 8.08 20.805 8.08 C 20.533 8.075 20.315 7.852 20.315 7.58 Z M 19.985 5.03 C 19.899 4.942 19.852 4.823 19.855 4.7 C 19.847 4.558 19.906 4.421 20.015 4.33 C 20.207 4.134 20.523 4.134 20.715 4.33 C 20.798 4.425 20.847 4.544 20.855 4.67 C 20.852 4.812 20.791 4.946 20.685 5.04 C 20.594 5.121 20.477 5.168 20.355 5.17 C 20.217 5.179 20.082 5.128 19.985 5.03 Z M 16.985 4.11 C 16.99 3.836 17.211 3.615 17.485 3.61 C 17.761 3.61 17.985 3.834 17.985 4.11 C 17.985 4.386 17.761 4.61 17.485 4.61 C 17.221 4.594 17.015 4.375 17.015 4.11 Z M 13.985 4.11 C 13.99 3.836 14.211 3.615 14.485 3.61 C 14.761 3.61 14.985 3.834 14.985 4.11 C 14.985 4.386 14.761 4.61 14.485 4.61 C 14.221 4.594 14.015 4.375 14.015 4.11 Z"/>
</svg>

<svg xmlns="http://www.w3.org/2000/svg" viewBox="0 0 24 24"><path d="M12.005 20.41a.44.44 0 0 1-.44-.44V4.03a.44.44 0 0 1 .88 0v15.94a.44.44 0 0 1-.44.44zm-7.03-.02a2.29 2.29 0 0 1-2.28-2.27V5.89a2.25 2.25 0 0 1 .68-1.62 2.288 2.288 0 0 1 1.6-.66h4.86a.5.5 0 0 1 0 1h-4.85c-.348.01-.676.162-.91.42-.245.235-.383.56-.38.9v12.18a1.289 1.289 0 0 0 1.28 1.28h4.52a.5.5 0 0 1 .5.5.51.51 0 0 1-.5.5h-4.52zm11.88-.51a.5.5 0 0 1 1 0 .5.5 0 1 1-1 0zm-3 0a.5.5 0 0 1 1 0 .5.5 0 1 1-1 0zm6-.13a.51.51 0 0 1 .04-.72.49.49 0 0 1 .71 0 .51.51 0 0 1-.03.71.544.544 0 0 1-.34.13.514.514 0 0 1-.37-.12zm.45-3.17a.5.5 0 1 1 .5.5.5.5 0 0 1-.49-.5zm0-3a.51.51 0 0 1 .5-.5.5.5 0 0 1 0 1 .5.5 0 0 1-.49-.5zm0-3a.51.51 0 0 1 .5-.5.5.5 0 0 1 0 1 .5.5 0 0 1-.49-.5zm0-3a.5.5 0 1 1 .5.5.5.5 0 0 1-.49-.5zm-.32-2.55a.456.456 0 0 1-.13-.33.448.448 0 0 1 .16-.37.49.49 0 0 1 .7 0 .57.57 0 0 1 .14.34.508.508 0 0 1-.5.5.477.477 0 0 1-.37-.14zm-3-.92a.51.51 0 0 1 .5-.5.5.5 0 0 1 0 1 .5.5 0 0 1-.47-.5zm-3 0a.51.51 0 0 1 .5-.5.5.5 0 0 1 0 1 .5.5 0 0 1-.47-.5z"/></svg>
